X: 5876
T: Calum Donaldson
R: reel
M: 4/4
K: Amajor
EAAG ABcd|eA (3cBA eA (3cBA|Bffe f3 g|afec BdcB|
EAAG ABcd|eA (3cBA eA (3cBA|Bffe fgaf|ecBc A4:|
agab agfe|fedc dcBA|Bffe f3 g|afec Befg|
agab agfe|fedc dcBA|Bffe fgaf|ecBc A4|
agab agfe|fedc dcBA|Bffe f3 g|afec BdcB|
EAAG ABcd|eA (3cBA eA (3cBA|Bffe fgaf|ecBc A4||

